app/client/src/assets/icons/blueprintjs/16px/panel-table.svg

<svg xmlns="http://www.w3.org/2000/svg" xml:space="preserve" viewBox="0 0 16 16"><path d="M15 1H1c-.6 0-1 .4-1 1v11c0 .6.4 1 1 1h14c.6 0 1-.4 1-1V2c0-.6-.4-1-1-1zM8 9H6V7h2v2zm0-3H6V4h2v2zm-6 6V3h3v9H2zm4 0v-2h2v2H6zm8 0H9v-2h5v2zm0-3H9V7h5v2zm0-3H9V4h5v2z"/></svg>

<?xml version="1.0" encoding="utf-8"?>
<!-- Generator: Adobe Illustrator 18.0.0, SVG Export Plug-In . SVG Version: 6.00 Build 0)  -->
<svg version="1.1" id="Layer_1" xmlns="http://www.w3.org/2000/svg" xmlns:xlink="http://www.w3.org/1999/xlink" x="0px" y="0px"
	 viewBox="0 0 16 16" enable-background="new 0 0 16 16" xml:space="preserve">
<title>pt-icon-panel-table</title>
<desc>Created with Sketch.</desc>
<path fill="#10161A" d="M15,1H1C0.4,1,0,1.4,0,2v11c0,0.6,0.4,1,1,1h14c0.6,0,1-0.4,1-1V2C16,1.4,15.6,1,15,1z M8,9H6V7h2V9z M8,6H6
	V4h2V6z M2,12V3h3v9H2z M6,12v-2h2v2H6z M14,12H9v-2h5V12z M14,9H9V7h5V9z M14,6H9V4h5V6z"/>
</svg>
